X:1
T:Title
%%score { ( 1 3 ) | ( 2 4 ) }
L:1/8
M:4/4
K:Bb
V:1 treble nm="Grand Piano"
V:3 treble 
V:2 bass 
V:4 bass 
V:1
 z4 z2[Q:1/4=96] [B,D][CE] | [DF][DF][DF][DF] [DF]2 D[DF] |[M:3/4] GG GG [DF]2 |[M:1/4] [DF][DF] | %4
[M:4/4] BBBB B2 AB |[M:3/4] cc [=Ec][Ed] [Fc]2 |[M:1/4] [FB]c |[M:4/4] dddd d2 [Fd][Fc] | %8
[M:3/4] [GB][GB] [GB][GB] [GB]2 |[M:1/4] [FA][EG] |[M:4/4] [DF][DF][DF][DF] [DF]2 [FB][Gc] | %11
[M:3/4] dd dc [DB]2 |[M:1/4] [B,D][CE] |[M:4/4] F4 B4 |[M:3/4] G2 G2 z2 |[M:1/4] [FB][FB] | %16
[M:4/4] c4 d4 |[M:3/4] c2 c2 z2 |[M:1/4] [FB]c |[M:4/4] d4 d4 |[M:3/4] c2 B2 z2 |[M:1/4] GG | %22
[M:4/4] F2 B2 B2 A2 |[M:3/4] B6 |] %24
V:2
 z4 z2 [B,,F,][B,,F,] | [B,,B,][B,,B,][B,,B,][B,,B,] [B,,B,]2 [B,,B,][B,,B,] | %2
[M:3/4] [E,B,E][E,B,E] [E,B,E][E,B,E] [B,,B,]2 |[M:1/4] [B,,B,][B,,B,] | %4
[M:4/4] [G,B,D][G,B,D][G,B,D][G,B,D] [G,B,D]2 [G,B,D][G,B,D] | %5
[M:3/4] [F,A,F][F,A,F] [C,B,][C,B,] [F,A,]2 |[M:1/4] [D,B,][K:treble][F,A,F] | %7
[M:4/4] [B,F][B,F][B,F][B,F] [B,F]2[K:bass] [B,,B,][D,B,] | %8
[M:3/4] [E,B,][E,B,] [E,B,][E,B,] [E,B,]2 |[M:1/4] [E,B,][E,B,] | %10
[M:4/4] [B,,B,][B,,B,][B,,B,][B,,B,] [B,,B,]2 [D,B,][E,B,] | %11
[M:3/4] [F,B,F][F,B,F] [F,F][F,E] [B,,F,]2 |[M:1/4] [B,,F,][B,,F,] | %13
[M:4/4] [B,,B,][B,,B,][B,,B,][B,,B,] [B,,B,]2 [B,,B,][D,B,] | %14
[M:3/4] [E,B,E][E,B,] [E,B,E][E,B,] [B,,B,]2 |[M:1/4] [D,B,][D,B,] | %16
[M:4/4] [F,A,F][F,A,][F,A,][F,A,][K:treble] [B,F]2 B,[K:bass]B, | %17
[M:3/4] [F,A,F][F,A,] [F,A,E][F,A,] [B,,B,]2 |[M:1/4] [D,B,][K:treble][F,A,F] | %19
[M:4/4] [B,F]B,B,B, [B,F]2[K:bass] B,B, |[M:3/4] [E,G,E][E,G,] [E,G,E][E,G,] [E,B,E]2 | %21
[M:1/4] [E,B,E][E,B,E] |[M:4/4] [F,B,D]2 [F,B,D]2 [F,DF]2 [F,CE]2 |[M:3/4] z F,/F,/ G,G, F,2 |] %24
V:3
 x8 | x8 |[M:3/4] x6 |[M:1/4] x2 |[M:4/4] x8 |[M:3/4] x6 |[M:1/4] x2 |[M:4/4] x8 |[M:3/4] x6 | %9
[M:1/4] x2 |[M:4/4] x8 |[M:3/4] x6 |[M:1/4] x2 |[M:4/4] DDDD D2 DF |[M:3/4] z E z E [DF]2 | %15
[M:1/4] x2 |[M:4/4] z FFF z2 FF |[M:3/4] z F z E [DB]2 |[M:1/4] x2 |[M:4/4] z FFF z2 FF | %20
[M:3/4] z E z E G2 |[M:1/4] x2 |[M:4/4] x8 |[M:3/4] [B,D]D/D/ EE D2 |] %24
V:4
 x8 | x8 |[M:3/4] x6 |[M:1/4] x2 |[M:4/4] x8 |[M:3/4] x6 |[M:1/4] x[K:treble] x | %7
[M:4/4] x6[K:bass] x2 |[M:3/4] x6 |[M:1/4] x2 |[M:4/4] x8 |[M:3/4] x6 |[M:1/4] x2 |[M:4/4] x8 | %14
[M:3/4] x6 |[M:1/4] x2 |[M:4/4] x4[K:treble] x3[K:bass] x |[M:3/4] x6 |[M:1/4] x[K:treble] x | %19
[M:4/4] x6[K:bass] x2 |[M:3/4] x6 |[M:1/4] x2 |[M:4/4] x8 |[M:3/4] B,,6 |] %24

